svg/nature/dandelion_fill.svg

<?xml version="1.0" encoding="UTF-8"?>
<svg width="24px" height="24px" viewBox="0 0 24 24" version="1.1" xmlns="http://www.w3.org/2000/svg" xmlns:xlink="http://www.w3.org/1999/xlink">
    <title>dandelion_fill</title>
    <g id="Icon" stroke="none" stroke-width="1" fill="none" fill-rule="evenodd">
        <g id="Nature" transform="translate(-288.000000, -50.000000)">
            <g id="dandelion_fill" transform="translate(288.000000, 50.000000)">
                <path d="M24,0 L24,24 L0,24 L0,0 L24,0 Z M12.5935,23.2578 L12.5819,23.2595 L12.5109,23.295 L12.4919,23.2987 L12.4767,23.295 L12.4057,23.2595 C12.3958,23.2564 12.387,23.259 12.3821,23.2649 L12.378,23.2758 L12.3609,23.7031 L12.3659,23.7235 L12.3769,23.7357 L12.4805,23.8097 L12.4953,23.8136 L12.5071,23.8097 L12.6107,23.7357 L12.6233,23.7197 L12.6267,23.7031 L12.6096,23.2758 C12.6076,23.2657 12.601,23.2593 12.5935,23.2578 Z M12.8584,23.1453 L12.8445,23.1473 L12.6598,23.2397 L12.6499,23.2499 L12.6472,23.2611 L12.6651,23.6906 L12.6699,23.7034 L12.6784,23.7105 L12.8793,23.8032 C12.8914,23.8069 12.9022,23.803 12.9078,23.7952 L12.9118,23.7812 L12.8777,23.1665 C12.8753,23.1546 12.8674,23.147 12.8584,23.1453 Z M12.143,23.1473 C12.1332,23.1424 12.1222,23.1453 12.1156,23.1526 L12.1099,23.1665 L12.0758,23.7812 C12.0751,23.7927 12.0828,23.8019 12.0926,23.8046 L12.1083,23.8032 L12.3092,23.7105 L12.3186,23.7024 L12.3225,23.6906 L12.3404,23.2611 L12.3372,23.2485 L12.3278,23.2397 L12.143,23.1473 Z" id="MingCute" fill-rule="nonzero"></path>
                <path d="M12,2 C16.4183,2 20,5.58172 20,10 C20,12.4183 18.927,14.5859 17.2312,16.0528 C17.7556,17.6653 17.9999,19.3363 17.9999,21 C17.9999,21.5523 17.5522,22 16.9999,22 C16.4476,22 15.9999,21.5523 15.9999,21 C15.9999,19.716 15.8351,18.4376 15.4893,17.201 C14.4348,17.7129 13.2509,18 12,18 C7.58172,18 4,14.4183 4,10 C4,5.58172 7.58172,2 12,2 Z M12,8 C10.8954,8 10,8.89543 10,10 C10,11.1046 10.8954,12 12,12 C12.192,12 12.3776,11.973 12.5534,11.9225 C13.5109,12.9673 14.2532,14.1081 14.7996,15.3081 C15.4096,14.9858 15.9573,14.5614 16.4199,14.0577 C15.7953,12.7923 14.9754,11.587 13.9424,10.4785 C13.98,10.3252 14,10.1649 14,10 C14,8.89543 13.1046,8 12,8 Z" id="形状" fill="#09244B"></path>
            </g>
        </g>
    </g>
</svg>

<svg xmlns="http://www.w3.org/2000/svg" width="24" height="24"><g fill="none" fill-rule="evenodd"><path d="M24 0v24H0V0h24ZM12.594 23.258l-.012.002-.071.035-.02.004-.014-.004-.071-.036c-.01-.003-.019 0-.024.006l-.004.01-.017.428.005.02.01.013.104.074.015.004.012-.004.104-.074.012-.016.004-.017-.017-.427c-.002-.01-.009-.017-.016-.018Zm.264-.113-.014.002-.184.093-.01.01-.003.011.018.43.005.012.008.008.201.092c.012.004.023 0 .029-.008l.004-.014-.034-.614c-.003-.012-.01-.02-.02-.022Zm-.715.002a.023.023 0 0 0-.027.006l-.006.014-.034.614c0 .012.007.02.017.024l.015-.002.201-.093.01-.008.003-.011.018-.43-.003-.012-.01-.01-.184-.092Z"/><path fill="#09244B" d="M12 2a8 8 0 0 1 5.231 14.053C17.756 17.665 18 19.336 18 21a1 1 0 1 1-2 0c0-1.284-.165-2.562-.51-3.799A8 8 0 1 1 12 2Zm0 6a2 2 0 1 0 .553 3.922 12.922 12.922 0 0 1 2.247 3.386 6.02 6.02 0 0 0 1.62-1.25 14.933 14.933 0 0 0-2.478-3.58A2 2 0 0 0 12 8Z"/></g></svg>
